local/share/icons/dracula-icons-main/scalable/mimetypes/text-x-sass.svg

<?xml version="1.0" encoding="UTF-8"?>
<svg xmlns="http://www.w3.org/2000/svg" xmlns:xlink="http://www.w3.org/1999/xlink" width="64" height="64" viewBox="0 0 64 64">
<defs>
<filter id="filter-remove-color" x="0%" y="0%" width="100%" height="100%">
<feColorMatrix color-interpolation-filters="sRGB" values="0 0 0 0 1 0 0 0 0 1 0 0 0 0 1 0 0 0 1 0" />
</filter>
<mask id="mask-0">
<g filter="url(#filter-remove-color)">
<rect x="-6.4" y="-6.4" width="76.8" height="76.8" fill="rgb(0%, 0%, 0%)" fill-opacity="0.1"/>
</g>
</mask>
<linearGradient id="linear-pattern-0" gradientUnits="userSpaceOnUse" x1="49.570999" y1="52.714001" x2="51.714001" y2="54.856998" gradientTransform="matrix(0.617345, 0, 0, 0.617345, -18.167916, -19.050025)">
<stop offset="0" stop-color="rgb(0%, 0%, 0%)" stop-opacity="1"/>
<stop offset="1" stop-color="rgb(0%, 0%, 0%)" stop-opacity="0"/>
</linearGradient>
<clipPath id="clip-0">
<rect x="0" y="0" width="17" height="17"/>
</clipPath>
<g id="source-10442" clip-path="url(#clip-0)">
<path fill-rule="evenodd" fill="url(#linear-pattern-0)" d="M 14.816406 12.171875 L 11.113281 15.875 L 13.492188 15.875 C 14.226562 15.875 14.816406 15.285156 14.816406 14.550781 Z M 14.816406 12.171875 "/>
</g>
</defs>
<path fill-rule="nonzero" fill="rgb(95.686275%, 95.686275%, 95.686275%)" fill-opacity="1" d="M 3.441406 1.058594 L 13.492188 1.058594 C 14.222656 1.058594 14.816406 1.652344 14.816406 2.382812 L 14.816406 14.550781 C 14.816406 15.28125 14.222656 15.875 13.492188 15.875 L 3.441406 15.875 C 2.707031 15.875 2.117188 15.28125 2.117188 14.550781 L 2.117188 2.382812 C 2.117188 1.652344 2.707031 1.058594 3.441406 1.058594 Z M 3.441406 1.058594 "/>
<g mask="url(#mask-0)">
<use xlink:href="#source-10442"/>
</g>
<path fill-rule="nonzero" fill="rgb(91.372549%, 48.627451%, 78.431373%)" fill-opacity="1" d="M 11.523438 8.941406 C 11.230469 8.945312 10.972656 9.015625 10.757812 9.121094 C 10.679688 8.964844 10.597656 8.824219 10.585938 8.722656 C 10.570312 8.601562 10.550781 8.53125 10.570312 8.386719 C 10.589844 8.246094 10.671875 8.042969 10.671875 8.027344 C 10.667969 8.011719 10.652344 7.941406 10.480469 7.9375 C 10.3125 7.9375 10.164062 7.972656 10.148438 8.015625 C 10.128906 8.058594 10.097656 8.164062 10.078125 8.269531 C 10.046875 8.421875 9.734375 8.972656 9.558594 9.261719 C 9.5 9.152344 9.453125 9.050781 9.441406 8.972656 C 9.425781 8.855469 9.40625 8.78125 9.425781 8.640625 C 9.445312 8.496094 9.527344 8.292969 9.527344 8.277344 C 9.523438 8.261719 9.507812 8.191406 9.335938 8.1875 C 9.167969 8.1875 9.019531 8.222656 9.003906 8.265625 C 8.984375 8.3125 8.96875 8.417969 8.933594 8.519531 C 8.898438 8.621094 8.484375 9.542969 8.375 9.78125 C 8.320312 9.902344 8.273438 10 8.238281 10.066406 C 8.238281 10.066406 8.234375 10.070312 8.230469 10.078125 C 8.203125 10.136719 8.183594 10.167969 8.183594 10.167969 C 8.160156 10.210938 8.136719 10.25 8.125 10.25 C 8.117188 10.25 8.097656 10.136719 8.128906 9.984375 C 8.191406 9.664062 8.335938 9.167969 8.335938 9.152344 C 8.335938 9.140625 8.363281 9.054688 8.238281 9.011719 C 8.117188 8.964844 8.074219 9.039062 8.066406 9.039062 C 8.054688 9.039062 8.046875 9.066406 8.046875 9.066406 C 8.046875 9.066406 8.179688 8.503906 7.789062 8.503906 C 7.546875 8.503906 7.207031 8.773438 7.039062 9.015625 C 6.9375 9.070312 6.710938 9.195312 6.472656 9.324219 C 6.378906 9.375 6.285156 9.425781 6.199219 9.476562 C 6.191406 9.46875 6.1875 9.460938 6.179688 9.457031 C 5.707031 8.949219 4.832031 8.59375 4.867188 7.914062 C 4.882812 7.667969 4.96875 7.015625 6.550781 6.226562 C 7.851562 5.585938 8.886719 5.765625 9.066406 6.160156 C 9.324219 6.722656 8.511719 7.765625 7.167969 7.917969 C 6.652344 7.976562 6.382812 7.777344 6.316406 7.703125 C 6.246094 7.625 6.234375 7.621094 6.207031 7.636719 C 6.164062 7.660156 6.191406 7.730469 6.207031 7.769531 C 6.246094 7.875 6.414062 8.058594 6.691406 8.152344 C 6.941406 8.230469 7.542969 8.277344 8.269531 7.996094 C 9.085938 7.679688 9.722656 6.804688 9.535156 6.070312 C 9.347656 5.324219 8.109375 5.078125 6.941406 5.492188 C 6.246094 5.742188 5.488281 6.128906 4.945312 6.636719 C 4.300781 7.242188 4.199219 7.765625 4.242188 7.984375 C 4.390625 8.765625 5.464844 9.269531 5.894531 9.648438 C 5.875 9.660156 5.855469 9.671875 5.835938 9.679688 C 5.621094 9.785156 4.804688 10.214844 4.597656 10.667969 C 4.367188 11.179688 4.636719 11.550781 4.8125 11.597656 C 5.367188 11.75 5.933594 11.476562 6.238281 11.023438 C 6.542969 10.566406 6.503906 9.976562 6.363281 9.707031 C 6.363281 9.703125 6.363281 9.699219 6.359375 9.695312 C 6.414062 9.664062 6.472656 9.628906 6.527344 9.597656 C 6.636719 9.53125 6.746094 9.472656 6.839844 9.421875 C 6.785156 9.566406 6.746094 9.738281 6.726562 9.984375 C 6.707031 10.277344 6.824219 10.652344 6.980469 10.800781 C 7.050781 10.867188 7.132812 10.867188 7.183594 10.867188 C 7.367188 10.867188 7.449219 10.71875 7.539062 10.539062 C 7.652344 10.316406 7.753906 10.0625 7.753906 10.0625 C 7.753906 10.0625 7.625 10.753906 7.96875 10.753906 C 8.089844 10.753906 8.214844 10.589844 8.273438 10.511719 C 8.273438 10.511719 8.273438 10.507812 8.28125 10.496094 C 8.292969 10.476562 8.300781 10.464844 8.300781 10.464844 L 8.300781 10.460938 C 8.351562 10.375 8.460938 10.175781 8.628906 9.851562 C 8.839844 9.429688 9.046875 8.90625 9.046875 8.90625 C 9.046875 8.90625 9.066406 9.03125 9.128906 9.246094 C 9.164062 9.371094 9.242188 9.507812 9.304688 9.640625 C 9.253906 9.710938 9.222656 9.75 9.222656 9.75 L 9.226562 9.753906 C 9.1875 9.804688 9.140625 9.863281 9.09375 9.917969 C 8.925781 10.117188 8.726562 10.347656 8.695312 10.414062 C 8.664062 10.496094 8.671875 10.550781 8.734375 10.597656 C 8.777344 10.632812 8.859375 10.636719 8.941406 10.632812 C 9.09375 10.621094 9.199219 10.585938 9.253906 10.5625 C 9.335938 10.53125 9.429688 10.488281 9.519531 10.421875 C 9.683594 10.296875 9.785156 10.125 9.777344 9.894531 C 9.773438 9.765625 9.730469 9.640625 9.679688 9.519531 C 9.695312 9.5 9.707031 9.476562 9.722656 9.457031 C 9.984375 9.074219 10.1875 8.652344 10.1875 8.652344 C 10.1875 8.652344 10.207031 8.78125 10.269531 8.996094 C 10.300781 9.105469 10.363281 9.222656 10.417969 9.335938 C 10.175781 9.535156 10.023438 9.765625 9.96875 9.917969 C 9.871094 10.199219 9.945312 10.328125 10.089844 10.355469 C 10.15625 10.371094 10.25 10.339844 10.316406 10.308594 C 10.402344 10.28125 10.503906 10.234375 10.601562 10.164062 C 10.769531 10.042969 10.925781 9.871094 10.917969 9.640625 C 10.914062 9.535156 10.886719 9.433594 10.847656 9.332031 C 11.054688 9.246094 11.324219 9.195312 11.667969 9.238281 C 12.402344 9.324219 12.550781 9.78125 12.523438 9.976562 C 12.492188 10.167969 12.339844 10.273438 12.289062 10.308594 C 12.238281 10.339844 12.21875 10.351562 12.226562 10.375 C 12.230469 10.40625 12.253906 10.40625 12.300781 10.398438 C 12.359375 10.390625 12.683594 10.242188 12.699219 9.886719 C 12.722656 9.433594 12.289062 8.9375 11.523438 8.941406 Z M 5.84375 10.855469 C 5.601562 11.121094 5.261719 11.222656 5.113281 11.136719 C 4.957031 11.046875 5.019531 10.652344 5.316406 10.371094 C 5.5 10.199219 5.734375 10.042969 5.890625 9.945312 C 5.925781 9.921875 5.980469 9.890625 6.042969 9.851562 C 6.054688 9.847656 6.058594 9.84375 6.058594 9.84375 C 6.074219 9.835938 6.085938 9.828125 6.097656 9.820312 C 6.207031 10.222656 6.101562 10.578125 5.84375 10.855469 Z M 7.625 9.648438 C 7.539062 9.855469 7.359375 10.382812 7.253906 10.355469 C 7.160156 10.332031 7.101562 9.929688 7.234375 9.53125 C 7.300781 9.332031 7.441406 9.09375 7.523438 9 C 7.65625 8.851562 7.804688 8.804688 7.839844 8.863281 C 7.882812 8.941406 7.675781 9.515625 7.625 9.648438 Z M 9.089844 10.347656 C 9.054688 10.367188 9.023438 10.378906 9.007812 10.371094 C 8.996094 10.363281 9.023438 10.339844 9.023438 10.339844 C 9.023438 10.339844 9.207031 10.140625 9.277344 10.050781 C 9.320312 10 9.371094 9.9375 9.421875 9.867188 L 9.421875 9.886719 C 9.421875 10.125 9.195312 10.285156 9.089844 10.347656 Z M 10.222656 10.089844 C 10.195312 10.074219 10.203125 10.011719 10.289062 9.816406 C 10.324219 9.742188 10.40625 9.613281 10.542969 9.492188 C 10.558594 9.542969 10.570312 9.589844 10.566406 9.632812 C 10.566406 9.933594 10.351562 10.042969 10.222656 10.089844 Z M 10.222656 10.089844 "/>
</svg>

<svg width="64" height="64" version="1.1" viewBox="0 0 16.933 16.933" xmlns="http://www.w3.org/2000/svg">
 <defs>
  <linearGradient id="a" x1="49.571" x2="51.714" y1="52.714" y2="54.857" gradientTransform="matrix(2.3333,0,0,2.3333,-68.667,-72.001)" gradientUnits="userSpaceOnUse">
   <stop offset="0"/>
   <stop stop-opacity="0" offset="1"/>
  </linearGradient>
 </defs>
 <g transform="scale(.26458)">
  <rect x="8" y="4" width="48" height="56" ry="5" fill="#f4f4f4" style="paint-order:stroke fill markers"/>
  <path d="m56 46-14 14h9c2.77 0 5-2.23 5-5z" fill="url(#a)" fill-rule="evenodd" opacity=".1" stroke-width="8.8191" style="paint-order:stroke fill markers"/>
 </g>
 <path d="m11.524 8.9419c-0.29537 0.0015-0.55208 0.07268-0.76704 0.17784-0.07887-0.15619-0.15774-0.29537-0.17165-0.39744-0.01546-0.11908-0.03402-0.19176-0.01546-0.33403s0.10206-0.34486 0.10052-0.36032c-0.0016-0.01547-0.01856-0.08815-0.18867-0.08969-0.17011-0.0016-0.31702 0.03247-0.33403 0.07732s-0.04949 0.14691-0.07114 0.25207c-0.02938 0.15464-0.34022 0.70672-0.51806 0.99591-0.05722-0.11289-0.1067-0.21186-0.11753-0.29073-0.01547-0.11908-0.03402-0.19176-0.01547-0.33403 0.01856-0.14227 0.10206-0.34486 0.10052-0.36032-0.0016-0.01546-0.01856-0.08815-0.18867-0.08969-0.17011-0.0015-0.31702 0.03248-0.33403 0.07732-0.01701 0.04485-0.03557 0.15-0.07114 0.25207s-0.44847 1.0237-0.55672 1.2619c-0.05567 0.12217-0.10361 0.2196-0.13763 0.28609 0 0-0.0015 0.0046-0.0062 0.01237-0.02938 0.05722-0.04639 0.08815-0.04639 0.08815v0.0015c-0.0232 0.04175-0.04794 0.08042-0.06031 0.08042-0.0093 0-0.02629-0.11134 0.0031-0.26289 0.06186-0.32011 0.20877-0.81807 0.20722-0.83508 0-0.0093 0.02784-0.09588-0.09588-0.14073-0.12062-0.04485-0.16392 0.02938-0.17475 0.02938s-0.01856 0.02629-0.01856 0.02629 0.13454-0.55981-0.25671-0.55981c-0.24434 0-0.58146 0.26753-0.74848 0.50878-0.10516 0.05722-0.32939 0.17939-0.56909 0.31083-0.09124 0.05103-0.18557 0.10206-0.27372 0.15-0.0062-0.0062-0.01237-0.01392-0.01856-0.0201-0.47321-0.50569-1.3485-0.86291-1.3114-1.5418 0.01392-0.24743 0.09897-0.89694 1.681-1.6856 1.3021-0.64177 2.3382-0.46393 2.5176-0.06959 0.25671 0.5629-0.55517 1.6083-1.9006 1.7598-0.51342 0.05722-0.7825-0.14073-0.85054-0.21496-0.07114-0.07732-0.08196-0.08196-0.10825-0.0665-0.0433 0.0232-0.01546 0.09279 0 0.13299 0.04021 0.10516 0.20568 0.29073 0.48558 0.38197 0.24743 0.08041 0.849 0.12526 1.5774-0.15619 0.81498-0.31548 1.4521-1.1923 1.265-1.9269-0.18712-0.74538-1.4243-0.99127-2.5949-0.57528-0.6959 0.24743-1.4506 0.63713-1.9934 1.1444-0.64486 0.60311-0.74693 1.1274-0.70518 1.3469 0.15 0.7794 1.2248 1.2866 1.6547 1.6624-0.02165 0.01237-0.04175 0.0232-0.05877 0.03248-0.21496 0.1067-1.0346 0.53507-1.2387 0.98817-0.23197 0.51342 0.03712 0.88147 0.21496 0.93096 0.55208 0.1531 1.1196-0.12217 1.4243-0.57682 0.30465-0.45465 0.26753-1.0454 0.12681-1.316-0.0015-0.0031-0.0031-0.0062-0.0062-0.0093 0.05567-0.03247 0.11289-0.0665 0.16856-0.09897 0.1098-0.06495 0.21805-0.12526 0.31083-0.17475-0.05258 0.14382-0.09124 0.31547-0.1098 0.5629-0.0232 0.29073 0.09588 0.66806 0.25207 0.81652 0.06959 0.06495 0.15155 0.0665 0.20413 0.0665 0.18248 0 0.26444-0.15155 0.35568-0.33094 0.11134-0.21959 0.21186-0.47476 0.21186-0.47476s-0.12526 0.68971 0.21496 0.68971c0.12372 0 0.24898-0.16083 0.30465-0.24279v0.0015s0.0031-0.0046 0.0093-0.01546c0.01237-0.02011 0.02011-0.03248 0.02011-0.03248v-0.0031c0.04949-0.0866 0.16083-0.283 0.3263-0.6093 0.21341-0.42063 0.41909-0.94642 0.41909-0.94642s0.01856 0.12835 0.08196 0.34176c0.03711 0.12526 0.11444 0.2629 0.17629 0.39589-0.04949 0.06959-0.08041 0.10825-0.08041 0.10825l0.0016 0.0016c-0.04021 0.05258-0.08351 0.1098-0.13145 0.16547-0.16856 0.20104-0.3696 0.43146-0.39743 0.49795-0.03248 0.07887-0.02474 0.13609 0.03712 0.18248 0.04485 0.03402 0.12526 0.03866 0.20722 0.03402 0.15155-0.01083 0.25826-0.04794 0.31083-0.07114 0.08196-0.02938 0.17784-0.07423 0.26754-0.14073 0.16547-0.12217 0.26599-0.29692 0.25671-0.52733-0.0046-0.12681-0.04639-0.25362-0.09743-0.37269 0.01546-0.02165 0.02938-0.0433 0.04485-0.06495 0.26135-0.38197 0.46393-0.80106 0.46393-0.80106s0.01856 0.12836 0.08196 0.34176c0.03093 0.10825 0.09433 0.22578 0.15 0.34022-0.24588 0.19949-0.39744 0.43146-0.45156 0.58301-0.09743 0.28145-0.02165 0.40826 0.12217 0.43764 0.06495 0.01392 0.15774-0.01701 0.22578-0.04639 0.0866-0.02784 0.18866-0.07578 0.28609-0.14691 0.16547-0.12217 0.32475-0.29228 0.31548-0.5227-0.0046-0.10516-0.03248-0.20877-0.07114-0.30929 0.20877-0.0866 0.47785-0.13454 0.82116-0.09433 0.7361 0.0866 0.88147 0.54589 0.85363 0.7392s-0.18248 0.29846-0.23351 0.33094c-0.05103 0.03247-0.06804 0.0433-0.0634 0.0665 0.0062 0.03402 0.03093 0.03248 0.07423 0.02629 0.06031-0.01083 0.38661-0.15619 0.40053-0.51187 0.0232-0.45465-0.40981-0.95106-1.1753-0.94642zm-5.6785 1.9145c-0.24434 0.26599-0.58455 0.36651-0.73147 0.28145-0.15774-0.09124-0.09588-0.48404 0.20413-0.76549 0.18248-0.17166 0.41754-0.33094 0.57373-0.42836 0.03557-0.02165 0.08815-0.05258 0.15155-0.09124 0.01083-0.0062 0.01701-0.0093 0.01701-0.0093 0.01237-0.0077 0.02474-0.01546 0.03711-0.0232 0.1098 0.40207 0.0046 0.75621-0.25207 1.0361zm1.7784-1.2093c-0.08505 0.20722-0.2629 0.73765-0.37114 0.70827-0.09279-0.02474-0.15-0.42682-0.01856-0.82425 0.0665-0.19949 0.20722-0.43764 0.28918-0.53043 0.13299-0.14846 0.27991-0.19794 0.31547-0.13763 0.04485 0.07887-0.16238 0.65414-0.21496 0.78404zm1.4676 0.70208c-0.03557 0.01856-0.06959 0.03093-0.08505 0.02165-0.01083-0.0062 0.01546-0.03093 0.01546-0.03093s0.18403-0.19794 0.25671-0.28764c0.04175-0.05258 0.09124-0.11444 0.14382-0.18403v0.0201c0 0.23661-0.22887 0.39589-0.33094 0.46084zm1.132-0.25825c-0.02629-0.01856-0.02165-0.08042 0.0665-0.27372 0.03402-0.07578 0.11444-0.20258 0.25207-0.32475 0.01546 0.04949 0.02629 0.09742 0.02474 0.14227-0.0015 0.29846-0.21496 0.40981-0.34331 0.4562z" enable-background="new" fill="#e97cc8" stroke-width=".015464"/>
</svg>
